material/.icons/material/asterisk.svg

<svg xmlns="http://www.w3.org/2000/svg" viewBox="0 0 24 24"><path d="M10 2h4l-.79 7.91 6.45-4.64 2 3.46L14.42 12l7.24 3.27-2 3.46-6.45-4.64L14 22h-4l.79-7.91-6.45 4.64-2-3.46L9.58 12 2.34 8.73l2-3.46 6.45 4.64L10 2z"/></svg>

<?xml version="1.0" encoding="UTF-8"?><!DOCTYPE svg PUBLIC "-//W3C//DTD SVG 1.1//EN" "http://www.w3.org/Graphics/SVG/1.1/DTD/svg11.dtd"><svg xmlns="http://www.w3.org/2000/svg" xmlns:xlink="http://www.w3.org/1999/xlink" version="1.1" id="mdi-asterisk" width="24" height="24" viewBox="0 0 24 24"><path d="M10,2H14L13.21,9.91L19.66,5.27L21.66,8.73L14.42,12L21.66,15.27L19.66,18.73L13.21,14.09L14,22H10L10.79,14.09L4.34,18.73L2.34,15.27L9.58,12L2.34,8.73L4.34,5.27L10.79,9.91L10,2Z" /></svg>
